astro/public/img/icons/challenges-ciam.svg

<svg height="70" viewBox="0 0 70 70" width="70" xmlns="http://www.w3.org/2000/svg" xmlns:xlink="http://www.w3.org/1999/xlink"><linearGradient id="a" x1="0%" x2="100%" y1="9.652399%" y2="90.347601%"><stop offset="0" stop-color="#a4aebe"/><stop offset="1" stop-color="#2d53f5"/></linearGradient><path d="m57.3611111 49.7417502h-2.95l-14.3173333-30.2052066v-8.2006844h12.3506666c.9051334 0 1.6388889-.7250339 1.6388889-1.61940845v-8.09704229c0-.8943746-.7337555-1.61940846-1.6388889-1.61940846h-13.9895555c-.9051334 0-1.6388889.72503386-1.6388889 1.61940846v17.81349304l-10.7707778 17.0232217-7.5388889-5.2922268c-.3662081-.2606425-.825585-.3591395-1.2681856-.2719172-.4426005.0872222-.8285917.3523139-1.0655921.7318292l-11.45911116 18.1373747h-3.07455555c-.90513334 0-1.63888889.7250338-1.63888889 1.6194084s.73375555 1.6194085 1.63888889 1.6194085h55.72222221c.9051334 0 1.6388889-.7250339 1.6388889-1.6194085s-.7337555-1.6194084-1.6388889-1.6194084zm-6.5555555-41.64470791h-10.7117778v-4.85822537h10.7117778zm-32.7777778 26.70080661 7.5388889 5.2922269c.36711.2616767.8280074.3602725 1.2717777.2720606.442162-.0901164.8280382-.3544459 1.0685556-.7319726l10.3446667-16.3560254 12.5538889 26.4676118h-42.23088893z" fill="url(#a)" transform="translate(6 8)"/></svg>

<svg xmlns="http://www.w3.org/2000/svg" width="70" height="70"><linearGradient id="a" x1="0%" x2="100%" y1="9.652%" y2="90.348%"><stop offset="0" stop-color="#a4aebe"/><stop offset="1" stop-color="#2d53f5"/></linearGradient><path fill="url(#a)" d="M57.361 49.742h-2.95L40.094 19.537v-8.201h12.35a1.63 1.63 0 0 0 1.64-1.62V1.62A1.63 1.63 0 0 0 52.443 0h-13.99a1.63 1.63 0 0 0-1.638 1.62v17.813l-10.77 17.023-7.54-5.292a1.641 1.641 0 0 0-2.333.46L4.713 49.76H1.64c-.905 0-1.639.725-1.639 1.62S.734 53 1.639 53H57.36c.905 0 1.639-.725 1.639-1.62s-.734-1.619-1.639-1.619zM50.806 8.097H40.094V3.239h10.712zm-32.778 26.7 7.539 5.293a1.641 1.641 0 0 0 2.34-.46l10.345-16.356 12.554 26.468H8.575z" transform="translate(6 8)"/></svg>
